X: 10672
T: MARCHIONESS OF HUNTLY'S JIG
C: Marshall.
R: Jig
%R: jig
B: W. Hamilton "Universal Tune-Book" Vol. 1 Glasgow 1844 p.67 #2
S: http://imslp.org/wiki/Hamilton's_Universal_Tune-Book_(Various)
Z: 2016 John Chambers <jc:trillian.mit.edu>
M: 6/8
L: 1/8
K: Bb
%%stretchstaff 0
% - - - - - - - - - - - - - - - - - - - - - - - - -
f |\
(df)d B3 | (FB)F {E}D3 | B,2B fdB | Acc cde |\
(df)d B3 | (FB)F D3 | E2g fbf | dBB B2 :|
d/e/ |\
fed bfd | fed bfd | fga bfd | Acc c2(d/e/) |\
fed bag | fed cBA | GAB cde | dBB B2(d/e/) |
fed bfd | fed bfd | fga bfd | Acc c2d/e/ |\
{g}fed edc | B>AG FED | E2g fbf | dBB B2 |]
% - - - - - - - - - - - - - - - - - - - - - - - - -

%%sep 1 1 500
%%sep 1 1 500

